file/jxtg.svg

<svg clip-rule="evenodd" fill-rule="evenodd" stroke-linejoin="round" stroke-miterlimit="1.41421" viewBox="0 0 560 400" xmlns="http://www.w3.org/2000/svg"><g fill-rule="nonzero" transform="matrix(.841459 0 0 .841459 30 177.479)"><g fill="#333"><path d="m194.799 21.163c-.231 5.35-.696 9.652-1.629 13.137-1.278 4.186-3.02 7.674-5.579 10.465-1.395 1.512-2.791 2.787-4.419 3.721-.93.465-2.092 1.046-3.721 1.744v-10.35c2.093-2.092 3.606-4.532 4.536-7.555.93-2.79 1.396-6.51 1.627-11.162zm32.436-3.371h-18.718v34.532h-9.764v-34.532h-18.602v-9.068h18.602v-6.626h9.764v6.625h18.718zm1.049 32.438c-3.023-1.279-5.234-2.56-6.742-3.953-3.256-2.676-5.582-6.396-7.094-11.162-1.163-3.603-1.86-8.139-2.094-13.952h9.651c.116 4.652.697 8.372 1.627 11.162 1.048 3.023 2.56 5.463 4.652 7.555z"/><path d="m235.917 19.884h38.022v9.651h-38.022z"/><path d="m278.07 52.554v-11.276c1.973-1.859 3.488-3.837 4.416-6.045 1.513-3.837 2.326-9.185 2.326-16.044v-15.464h9.766v14.882c0 9.648-1.511 17.322-4.534 22.787-1.512 3.023-3.721 5.579-6.394 7.671-1.164.933-3.022 2.094-5.58 3.489zm50.339-33.831c-.116 3.72-.465 6.626-.812 8.72-.349 2.092-.814 4.185-1.512 6.277-2.792 7.44-7.556 12.557-14.417 15.345-2.789 1.165-6.858 1.978-12.206 2.327v-47.667h9.764v35.109c1.975-.812 3.49-1.977 4.533-3.254 2.795-3.836 4.534-9.416 5-16.856h9.65"/><path d="m430.761 9.189c-.933 3.837-2.559 7.208-4.651 9.999-1.862 2.441-4.417 4.882-7.79 7.208v26.044h-9.998v-21.045c-5.58 2.093-11.976 3.72-19.184 4.884v-9.184c7.208-1.279 12.674-2.908 16.625-4.536 4.417-1.86 8.024-4.184 10.695-6.976 1.51-1.628 2.907-3.72 4.186-6.395h10.117"/><path d="m483.206 12.328c-.462 4.302-.928 7.556-1.395 10-.583 2.441-1.277 4.767-2.21 6.858-2.44 5.928-6.159 10.461-10.931 13.835-3.602 2.557-8.018 4.53-13.37 5.929-3.833.928-9.531 1.628-17.086 1.976v-9.881c5.696-.466 9.998-1.047 13.019-1.745 6.977-1.743 12.211-4.882 15.581-9.418 2.324-3.021 3.951-6.509 4.65-10.462.467-1.977.815-4.302 1.046-7.092zm-21.391 5.001c-7.556-1.513-15.694-2.56-24.417-3.14v-9.766c8.257.465 16.394 1.395 24.417 2.789z"/><path d="m379.982 7.673v-7.673h-5.926v4.19h-36.858v9.185h42.784zm-46.038 20.235h22.205c-.581 2.674-1.512 4.882-2.557 6.626-1.628 2.21-3.607 3.952-6.161 5.232-2.21 1.046-5.118 1.859-8.721 2.324v9.536c5.229-.584 9.417-1.629 12.672-2.91 5.812-2.439 10.116-6.276 12.904-11.391 1.162-2.093 2.092-5.351 2.905-9.418h15.583v-9.07h-48.831v9.071zm47.784-20.235h5.926v-7.673h-5.926z"/><path d="m539.609.005v7.673h5.928v-7.673zm-7.672 4.534h-31.976c-.933 3.951-2.212 7.209-3.956 9.883-1.626 2.44-3.95 4.534-6.744 6.508v9.885c4.421-1.629 8.14-3.839 11.049-6.628 3.021-2.791 5.345-6.277 7.208-10.464h19.645c-.813 5.115-1.857 9.068-3.136 11.743-3.143 6.395-7.906 11.046-14.532 13.835-2.907 1.279-7.095 2.207-12.557 2.907v9.185c2.559-.233 4.88-.466 6.855-.813 4.072-.465 7.559-1.396 10.7-2.675 9.648-4.068 16.39-11.047 20.229-21.161.93-2.44 1.627-4.999 2.093-7.787.467-2.792.813-6.513 1.048-11.278v-7.674h-5.926z"/><path d="m594.206 51.857c-4.419-1.393-8.488-3.487-11.628-6.046-3.021-2.559-5.813-5.698-8.137-9.648-4.304 4.302-8.835 7.673-13.604 10.114-4.418 2.323-9.302 3.953-14.649 5.115v-9.65c4.421-1.277 8.255-2.908 11.396-4.766 4.999-3.023 9.067-6.86 12.208-11.279 1.629-2.208 3.019-4.417 3.95-6.741.465-1.046 1.051-2.792 1.746-5.117h-26.393v-9.3h38.601c-.351 4.65-.932 8.835-2.094 12.324-1.049 3.487-2.559 6.858-4.538 10.464 1.514 3.489 3.375 6.509 5.7 8.836 2.207 1.976 4.65 3.718 7.441 5.231v10.463"/></g><path d="m90.818 1.811h-18.68l-17.097 25.277 17.097 25.272h18.68l-17.1-25.272z" fill="#2ea28b"/><path d="m147.897 21.981v11.885h6.786v4.546c-1.306.724-2.895 1.159-5.787 1.159-7.091 0-12.081-4.922-12.081-12.082v-.142c0-6.876 4.773-11.938 11.356-11.938 4.196 0 7.885 1.591 11.213 4.411l9.473-11.429c-5.496-4.773-12.514-7.667-21.191-7.667-9.216 0-17.079 3.754-22.092 9.828v-8.741h-34.756l-9.689 14.322h12.621v36.313h16.923v-36.312h11.412c-1.508 3.31-2.341 7.016-2.341 10.993v.146c0 15.697 12.657 26.255 28.428 26.255 9.185 0 16.854-3.105 22.353-7.592v-23.955z" fill="#333"/><path d="m62.4 16.217-9.746-14.406h-13.811-4.865-11.626v31.465c0 3.542-1.882 5.86-4.701 5.86-2.748 0-4.628-1.664-6.582-4.416l-11.069 9.332c3.689 5.496 9.257 9.403 18.952 9.403 6.073 0 11.141-2.024 14.609-5.498 3.762-3.764 5.282-8.32 5.282-14.979v-23.975l12.234 18.085-17.1 25.275h18.676l9.742-14.398-7.354-10.87z" fill="#333"/></g></svg>

<?xml version="1.0" encoding="UTF-8" standalone="no"?>
<!DOCTYPE svg PUBLIC "-//W3C//DTD SVG 1.1//EN" "http://www.w3.org/Graphics/SVG/1.1/DTD/svg11.dtd">
<svg width="100%" height="100%" viewBox="0 0 560 400" version="1.1" xmlns="http://www.w3.org/2000/svg" xmlns:xlink="http://www.w3.org/1999/xlink" xml:space="preserve" xmlns:serif="http://www.serif.com/" style="fill-rule:evenodd;clip-rule:evenodd;stroke-linejoin:round;stroke-miterlimit:1.41421;">
    <g transform="matrix(0.841459,0,0,0.841459,30,177.479)">
        <path d="M194.799,21.163C194.568,26.513 194.103,30.815 193.17,34.3C191.892,38.486 190.15,41.974 187.591,44.765C186.196,46.277 184.8,47.552 183.172,48.486C182.242,48.951 181.08,49.532 179.451,50.23L179.451,39.88C181.544,37.788 183.057,35.348 183.987,32.325C184.917,29.535 185.383,25.815 185.614,21.163L194.799,21.163ZM227.235,17.792L208.517,17.792L208.517,52.324L198.753,52.324L198.753,17.792L180.151,17.792L180.151,8.724L198.753,8.724L198.753,2.098L208.517,2.098L208.517,8.723L227.235,8.723L227.235,17.792ZM228.284,50.23C225.261,48.951 223.05,47.67 221.542,46.277C218.286,43.601 215.96,39.881 214.448,35.115C213.285,31.512 212.588,26.976 212.354,21.163L222.005,21.163C222.121,25.815 222.702,29.535 223.632,32.325C224.68,35.348 226.192,37.788 228.284,39.88L228.284,50.23" style="fill:rgb(51,51,51);fill-rule:nonzero;"/>
        <g>
            <rect x="235.917" y="19.884" width="38.022" height="9.651" style="fill:rgb(51,51,51);fill-rule:nonzero;"/>
            <path d="M278.07,52.554L278.07,41.278C280.043,39.419 281.558,37.441 282.486,35.233C283.999,31.396 284.812,26.048 284.812,19.189L284.812,3.725L294.578,3.725L294.578,18.607C294.578,28.255 293.067,35.929 290.044,41.394C288.532,44.417 286.323,46.973 283.65,49.065C282.486,49.998 280.628,51.159 278.07,52.554ZM328.409,18.723C328.293,22.443 327.944,25.349 327.597,27.443C327.248,29.535 326.783,31.628 326.085,33.72C323.293,41.16 318.529,46.277 311.668,49.065C308.879,50.23 304.81,51.043 299.462,51.392L299.462,3.725L309.226,3.725L309.226,38.834C311.201,38.022 312.716,36.857 313.759,35.58C316.554,31.744 318.293,26.164 318.759,18.724L328.409,18.724" style="fill:rgb(51,51,51);fill-rule:nonzero;"/>
            <path d="M430.761,9.189C429.828,13.026 428.202,16.397 426.11,19.188C424.248,21.629 421.693,24.07 418.32,26.396L418.32,52.44L408.322,52.44L408.322,31.395C402.742,33.488 396.346,35.115 389.138,36.279L389.138,27.095C396.346,25.816 401.812,24.187 405.763,22.559C410.18,20.699 413.787,18.375 416.458,15.583C417.968,13.955 419.365,11.863 420.644,9.188L430.761,9.188" style="fill:rgb(51,51,51);fill-rule:nonzero;"/>
            <path d="M483.206,12.328C482.744,16.63 482.278,19.884 481.811,22.328C481.228,24.769 480.534,27.095 479.601,29.186C477.161,35.114 473.442,39.647 468.67,43.021C465.068,45.578 460.652,47.551 455.3,48.95C451.467,49.878 445.769,50.578 438.214,50.926L438.214,41.045C443.91,40.579 448.212,39.998 451.233,39.3C458.21,37.557 463.444,34.418 466.814,29.882C469.138,26.861 470.765,23.373 471.464,19.42C471.931,17.443 472.279,15.118 472.51,12.328L483.206,12.328ZM461.815,17.329C454.259,15.816 446.121,14.769 437.398,14.189L437.398,4.423C445.655,4.888 453.792,5.818 461.815,7.212L461.815,17.329" style="fill:rgb(51,51,51);fill-rule:nonzero;"/>
            <path d="M379.982,7.673L379.982,0L374.056,0L374.056,4.19L337.198,4.19L337.198,13.375L379.982,13.375L379.982,7.673ZM333.944,27.908L356.149,27.908C355.568,30.582 354.637,32.79 353.592,34.534C351.964,36.744 349.985,38.486 347.431,39.766C345.221,40.812 342.313,41.625 338.71,42.09L338.71,51.626C343.939,51.042 348.127,49.997 351.382,48.716C357.194,46.277 361.498,42.44 364.286,37.325C365.448,35.232 366.378,31.974 367.191,27.907L382.774,27.907L382.774,18.837L333.943,18.837L333.943,27.908L333.944,27.908ZM381.728,7.673L387.654,7.673L387.654,0L381.728,0L381.728,7.673Z" style="fill:rgb(51,51,51);fill-rule:nonzero;"/>
            <path d="M539.609,0.005L539.609,7.678L545.537,7.678L545.537,0.005L539.609,0.005ZM531.937,4.539L499.961,4.539C499.028,8.49 497.749,11.748 496.005,14.422C494.379,16.862 492.055,18.956 489.261,20.93L489.261,30.815C493.682,29.186 497.401,26.976 500.31,24.187C503.331,21.396 505.655,17.91 507.518,13.723L527.163,13.723C526.35,18.838 525.306,22.791 524.027,25.466C520.884,31.861 516.121,36.512 509.495,39.301C506.588,40.58 502.4,41.508 496.938,42.208L496.938,51.393C499.497,51.16 501.818,50.927 503.793,50.58C507.865,50.115 511.352,49.184 514.493,47.905C524.141,43.837 530.883,36.858 534.722,26.744C535.652,24.304 536.349,21.745 536.815,18.957C537.282,16.165 537.628,12.444 537.863,7.679L537.863,0.005L531.937,0.005L531.937,4.539Z" style="fill:rgb(51,51,51);fill-rule:nonzero;"/>
            <path d="M594.206,51.857C589.787,50.464 585.718,48.37 582.578,45.811C579.557,43.252 576.765,40.113 574.441,36.163C570.137,40.465 565.606,43.836 560.837,46.277C556.419,48.6 551.535,50.23 546.188,51.392L546.188,41.742C550.609,40.465 554.443,38.834 557.584,36.976C562.583,33.953 566.651,30.116 569.792,25.697C571.421,23.489 572.811,21.28 573.742,18.956C574.207,17.91 574.793,16.164 575.488,13.839L549.095,13.839L549.095,4.539L587.696,4.539C587.345,9.189 586.764,13.374 585.602,16.863C584.553,20.35 583.043,23.721 581.064,27.327C582.578,30.816 584.439,33.836 586.764,36.163C588.971,38.139 591.414,39.881 594.205,41.394L594.205,51.857" style="fill:rgb(51,51,51);fill-rule:nonzero;"/>
            <path d="M90.818,1.811L72.138,1.811L55.041,27.088L72.138,52.36L90.818,52.36L73.718,27.088L90.818,1.811Z" style="fill:rgb(46,162,139);fill-rule:nonzero;"/>
            <path d="M147.897,21.981L147.897,33.866L154.683,33.866L154.683,38.412C153.377,39.136 151.788,39.571 148.896,39.571C141.805,39.571 136.815,34.649 136.815,27.489L136.815,27.347C136.815,20.471 141.588,15.409 148.171,15.409C152.367,15.409 156.056,17 159.384,19.82L168.857,8.391C163.361,3.618 156.343,0.724 147.666,0.724C138.45,0.724 130.587,4.478 125.574,10.552L125.574,1.811L90.818,1.811L81.129,16.133L93.75,16.133L93.75,52.446L110.673,52.446L110.673,16.134L122.085,16.134C120.577,19.444 119.744,23.15 119.744,27.127L119.744,27.273C119.744,42.97 132.401,53.528 148.172,53.528C157.357,53.528 165.026,50.423 170.525,45.936L170.525,21.981L147.897,21.981Z" style="fill:rgb(51,51,51);fill-rule:nonzero;"/>
            <path d="M62.4,16.217L52.654,1.811L38.843,1.811L33.978,1.811L22.352,1.811L22.352,33.276C22.352,36.818 20.47,39.136 17.651,39.136C14.903,39.136 13.023,37.472 11.069,34.72L0,44.052C3.689,49.548 9.257,53.455 18.952,53.455C25.025,53.455 30.093,51.431 33.561,47.957C37.323,44.193 38.843,39.637 38.843,32.978L38.843,9.003L51.077,27.088L33.977,52.363L52.653,52.363L62.395,37.965L55.041,27.095L62.4,16.217Z" style="fill:rgb(51,51,51);fill-rule:nonzero;"/>
        </g>
    </g>
</svg>
